svg/Outline/play-back-circle.svg

<svg viewBox="0 0 24 24" xmlns="http://www.w3.org/2000/svg" width="24" height="24"><path d="M16.94 7.77c.4.03.77.23 1 .55.19.24.24.53.26.77q.02.38.02.93v3.96q0 .55-.02.93c-.02.25-.07.53-.25.77-.24.32-.6.52-1 .55-.3.02-.57-.08-.8-.2q-.32-.17-.8-.48l-3.1-1.97-.3-.19v.59l-.01.93c-.03.25-.08.53-.26.77-.23.32-.6.52-1 .55a1.4 1.4 0 0 1-.78-.2q-.35-.17-.8-.48l-3.12-1.97q-.43-.27-.7-.47a1.5 1.5 0 0 1-.48-.57q-.18-.47-.04-.95l.04-.13c.11-.26.3-.43.48-.57q.27-.21.7-.47l3.11-1.97q.48-.3.8-.48c.22-.12.49-.22.79-.2.4.03.77.23 1 .55.18.24.23.53.26.77q.03.38.02.93v.58l.28-.18 3.12-1.97q.46-.3.8-.48c.22-.12.48-.22.78-.2"/><path fill-rule="evenodd" d="M12 1A11 11 0 1 1 12 23A11 11 0 0 1 12 1M12 2.5A9.5 9.5 0 1 0 12 21.5A9.5 9.5 0 0 0 12 2.5" clip-rule="evenodd"/></svg>

<svg viewBox="0 0 24 24" xmlns="http://www.w3.org/2000/svg" width="24" height="24"><path d="M16.94 7.77C17.34 7.8 17.71 8 17.94 8.32C18.13 8.56 18.18 8.85 18.2 9.09Q18.22 9.47 18.22 10.02L18.22 13.98Q18.22 14.53 18.2 14.91C18.18 15.16 18.13 15.44 17.95 15.68C17.71 16 17.35 16.2 16.95 16.23C16.65 16.25 16.38 16.15 16.15 16.03Q15.83 15.86 15.35 15.55L11.95 13.39L11.94 14.91C11.91 15.16 11.86 15.44 11.68 15.68C11.45 16 11.08 16.2 10.68 16.23A1.4 1.4 0 0 1 9.9 16.03Q9.55 15.86 9.1 15.55L5.98 13.58Q5.55 13.31 5.28 13.11A1.5 1.5 0 0 1 4.8 12.54Q4.62 12.07 4.76 11.59L4.8 11.46C4.91 11.2 5.1 11.03 5.28 10.89Q5.55 10.68 5.98 10.42L9.09 8.45Q9.57 8.15 9.89 7.97C10.11 7.85 10.38 7.75 10.68 7.77C11.08 7.8 11.45 8 11.68 8.32C11.86 8.56 11.91 8.85 11.94 9.09Q11.97 9.47 11.96 10.02L11.96 10.6L15.36 8.45Q15.82 8.15 16.16 7.97C16.38 7.85 16.64 7.75 16.94 7.77"/><path fill-rule="evenodd" d="M12 1A11 11 0 1 1 12 23A11 11 0 0 1 12 1M12 2.5A9.5 9.5 0 1 0 12 21.5A9.5 9.5 0 0 0 12 2.5" clip-rule="evenodd"/></svg>
